icons/discharge.svg

<svg width="48" height="48" viewBox="0 0 48 48" fill="none" xmlns="http://www.w3.org/2000/svg">
<path fill-rule="evenodd" clip-rule="evenodd" d="M4.6489 20.0637C4.13178 20.2576 3.86978 20.834 4.0637 21.3511L6.95436 29.0596L5.21925 36H5.00003C4.44774 36 4.00003 36.4477 4.00003 37C4.00003 37.5523 4.44774 38 5.00003 38H5.97911C5.9936 38.0003 6.00805 38.0003 6.02245 38H17.9769C17.9919 38.0003 18.007 38.0003 18.0222 38H29.9779C29.993 38.0003 30.0081 38.0003 30.0232 38H41.9776C41.9867 38.0002 41.9959 38.0003 42.0051 38.0002L42.0209 38H43C43.5523 38 44 37.5523 44 37C44 36.4477 43.5523 36 43 36H42.7808L41.0457 29.0596L43.9364 21.3511C44.1303 20.834 43.8683 20.2576 43.3512 20.0637C42.834 19.8698 42.2576 20.1318 42.0637 20.6489L40.432 25H30V27H32V29H31C30.4477 29 30 29.4477 30 30C30 30.4435 30.2887 30.8196 30.6884 30.9505L29.2457 36H18.7543L17.3116 30.9505C17.7113 30.8196 18 30.4435 18 30C18 29.4477 17.5523 29 17 29H16V27H18V25H7.56803L5.93636 20.6489C5.74244 20.1318 5.16602 19.8698 4.6489 20.0637ZM39.0637 28.6489C39.0214 28.7618 39 28.8807 39 29H34V27H39.682L39.0637 28.6489ZM40.7192 36L39.4692 31H32.7543L31.3258 36H40.7192ZM8.93636 28.6489L8.31803 27H14V29H9.00003C9.00003 28.8807 8.97869 28.7618 8.93636 28.6489ZM16.6743 36L15.2457 31H8.5308L7.2808 36H16.6743Z" fill="black"/>
<path d="M23 13V10H25V13H28V15H25V18H23V15H20V13H23Z" fill="black"/>
</svg>

<svg
  xmlns="http://www.w3.org/2000/svg"
  width="24"
  height="24"
  viewBox="0 0 24 24"
  fill="none"
  stroke="currentColor"
  stroke-width="2"
  stroke-linecap="round"
  stroke-linejoin="round"
>
  <path
    fill-rule="evenodd"
    d="M4.649 20.064a1 1 0 0 0-.585 1.287l2.89 7.709L5.22 36H5a1 1 0 1 0 0 2h38a1 1 0 1 0 0-2h-.22l-1.734-6.94 2.89-7.709a1 1 0 1 0-1.872-.702L40.432 25H30v2h2v2h-1a1 1 0 0 0-.312 1.95L29.246 36H18.754l-1.442-5.05A1 1 0 0 0 17 29h-1v-2h2v-2H7.568l-1.632-4.351a1 1 0 0 0-1.287-.585m34.415 8.585A1 1 0 0 0 39 29h-5v-2h5.682zM40.719 36l-1.25-5h-6.715l-1.428 5zM8.936 28.649 8.318 27H14v2H9a1 1 0 0 0-.064-.351M16.674 36l-1.428-5H8.53l-1.25 5z"
    clip-rule="evenodd"
  />
  <path d="M23 13v-3h2v3h3v2h-3v3h-2v-3h-3v-2z" />
</svg>
